X:473
T:Scots Wha Hae
D:World of Arthur Spink
Z:Nigel Gatherer
R:waltz
M:3/4
L:1/4
K:C
G2G | G2E | G2A | c3  | A2A | A2G | A2B | c2d |
e2e | d2c | c2d | e2d | c2A | A2G | G3  | G2 ||
e2e | e2d | e2f | g2e | d2d | d2c | d2e | f3  |
g2e | d2c | c2d | e2d | c2A | A2G | G3  | G2 ||
<end>
<start>
